Newaita-dark/apps/16/recipes.svg

<?xml version="1.0" encoding="UTF-8"?>
<svg xmlns="http://www.w3.org/2000/svg" xmlns:xlink="http://www.w3.org/1999/xlink" width="16pt" height="16pt" viewBox="0 0 16 16" version="1.1">
<defs>
<radialGradient id="radial0" gradientUnits="userSpaceOnUse" cx="450.908936" cy="189.579361" fx="450.908936" fy="189.579361" r="21.166656" gradientTransform="matrix(0.0000000870852,-0.0390662,-0.0703192,-0.0000000507693,22.261576,31.797665)">
<stop offset="0" style="stop-color:rgb(0%,0%,0%);stop-opacity:0.313725;"/>
<stop offset="0.222222" style="stop-color:rgb(0%,0%,0%);stop-opacity:0.27451;"/>
<stop offset="1" style="stop-color:rgb(0%,0%,0%);stop-opacity:0;"/>
</radialGradient>
<radialGradient id="radial1" gradientUnits="userSpaceOnUse" cx="450.908936" cy="189.579361" fx="450.908936" fy="189.579361" r="21.166656" gradientTransform="matrix(-0.0000000870852,0.0390662,0.0703192,0.0000000507693,-6.385059,-3.763741)">
<stop offset="0" style="stop-color:rgb(0%,0%,0%);stop-opacity:0.313725;"/>
<stop offset="0.222222" style="stop-color:rgb(0%,0%,0%);stop-opacity:0.27451;"/>
<stop offset="1" style="stop-color:rgb(0%,0%,0%);stop-opacity:0;"/>
</radialGradient>
<radialGradient id="radial2" gradientUnits="userSpaceOnUse" cx="450.908936" cy="189.579361" fx="450.908936" fy="189.579361" r="21.166656" gradientTransform="matrix(-0.0000000870852,-0.0390662,0.0703192,-0.0000000507693,-6.385059,31.797665)">
<stop offset="0" style="stop-color:rgb(0%,0%,0%);stop-opacity:0.313725;"/>
<stop offset="0.222222" style="stop-color:rgb(0%,0%,0%);stop-opacity:0.27451;"/>
<stop offset="1" style="stop-color:rgb(0%,0%,0%);stop-opacity:0;"/>
</radialGradient>
<radialGradient id="radial3" gradientUnits="userSpaceOnUse" cx="450.908936" cy="189.579361" fx="450.908936" fy="189.579361" r="21.166656" gradientTransform="matrix(0.0000000870852,0.0390662,-0.0703192,0.0000000507693,22.261575,-3.763741)">
<stop offset="0" style="stop-color:rgb(0%,0%,0%);stop-opacity:0.313725;"/>
<stop offset="0.222222" style="stop-color:rgb(0%,0%,0%);stop-opacity:0.27451;"/>
<stop offset="1" style="stop-color:rgb(0%,0%,0%);stop-opacity:0;"/>
</radialGradient>
<linearGradient id="linear0" gradientUnits="userSpaceOnUse" x1="255.323059" y1="233.5" x2="255.323044" y2="254.666656" gradientTransform="matrix(0.00668003,0,0,0.031253,6.232693,6.719392)">
<stop offset="0" style="stop-color:rgb(0%,0%,0%);stop-opacity:0.27451;"/>
<stop offset="1" style="stop-color:rgb(0%,0%,0%);stop-opacity:0;"/>
</linearGradient>
<linearGradient id="linear1" gradientUnits="userSpaceOnUse" x1="254" y1="32.416668" x2="254" y2="233.5" gradientTransform="matrix(0.031253,0,0,0.031253,0,6.719391)">
<stop offset="0" style="stop-color:rgb(100%,87.843137%,69.803922%);stop-opacity:1;"/>
<stop offset="1" style="stop-color:rgb(100%,80%,50.196078%);stop-opacity:1;"/>
</linearGradient>
<linearGradient id="linear2" gradientUnits="userSpaceOnUse" x1="840" y1="1255.118164" x2="960" y2="1255.117188" gradientTransform="matrix(0.00826902,0,0,0.00826902,0,0)">
<stop offset="0" style="stop-color:rgb(100%,71.764706%,30.196078%);stop-opacity:1;"/>
<stop offset="1" style="stop-color:rgb(100%,80%,50.196078%);stop-opacity:1;"/>
</linearGradient>
<linearGradient id="linear3" gradientUnits="userSpaceOnUse" x1="128.322906" y1="64.166672" x2="128.322906" y2="117.083344" gradientTransform="matrix(0.0250024,0,0,0.0250024,2.249174,9.435796)">
<stop offset="0" style="stop-color:rgb(100%,71.764706%,30.196078%);stop-opacity:1;"/>
<stop offset="1" style="stop-color:rgb(100%,80%,50.196078%);stop-opacity:1;"/>
</linearGradient>
<linearGradient id="linear4" gradientUnits="userSpaceOnUse" x1="116.416656" y1="101.208092" x2="116.416656" y2="117.083344" gradientTransform="matrix(0.031253,0,0,0.031253,2.315325,4.569454)">
<stop offset="0" style="stop-color:rgb(100%,71.764706%,30.196078%);stop-opacity:1;"/>
<stop offset="1" style="stop-color:rgb(100%,80%,50.196078%);stop-opacity:1;"/>
</linearGradient>
<linearGradient id="linear5" gradientUnits="userSpaceOnUse" x1="133.734833" y1="68.97728" x2="133.734833" y2="117.083344" gradientTransform="matrix(0.0343783,0,0,0.0343783,-0.628444,6.02271)">
<stop offset="0" style="stop-color:rgb(100%,71.764706%,30.196078%);stop-opacity:1;"/>
<stop offset="1" style="stop-color:rgb(100%,80%,50.196078%);stop-opacity:1;"/>
</linearGradient>
<linearGradient id="linear6" gradientUnits="userSpaceOnUse" x1="254" y1="32.416668" x2="254" y2="233.5" gradientTransform="matrix(-0.031253,0.000000000000000004,-0.000000000000000004,-0.031253,15.876516,8.745619)">
<stop offset="0" style="stop-color:rgb(87.843137%,87.843137%,87.843137%);stop-opacity:1;"/>
<stop offset="1" style="stop-color:rgb(96.078431%,96.078431%,96.078431%);stop-opacity:1;"/>
</linearGradient>
<linearGradient id="linear7" gradientUnits="userSpaceOnUse" x1="254" y1="32.416668" x2="254" y2="233.5" gradientTransform="matrix(-0.031253,0,0,0.031253,15.876516,6.719391)">
<stop offset="0" style="stop-color:rgb(93.72549%,60.392157%,60.392157%);stop-opacity:1;"/>
<stop offset="1" style="stop-color:rgb(93.72549%,32.54902%,31.372549%);stop-opacity:1;"/>
</linearGradient>
<linearGradient id="linear8" gradientUnits="userSpaceOnUse" x1="254" y1="32.416668" x2="254" y2="233.5" gradientTransform="matrix(-0.031253,0,0,0.031253,15.876515,6.719391)">
<stop offset="0" style="stop-color:rgb(64.705882%,83.921569%,65.490196%);stop-opacity:1;"/>
<stop offset="1" style="stop-color:rgb(40%,73.333333%,41.568627%);stop-opacity:1;"/>
</linearGradient>
<linearGradient id="linear9" gradientUnits="userSpaceOnUse" x1="254" y1="32.416668" x2="254" y2="233.5" gradientTransform="matrix(-0.031253,0,0,0.031253,15.214993,6.057877)">
<stop offset="0" style="stop-color:rgb(96.078431%,96.078431%,96.078431%);stop-opacity:1;"/>
<stop offset="1" style="stop-color:rgb(87.843137%,87.843137%,87.843137%);stop-opacity:1;"/>
</linearGradient>
<linearGradient id="linear10" gradientUnits="userSpaceOnUse" x1="254" y1="32.416668" x2="254" y2="233.5" gradientTransform="matrix(0.031253,0,0,-0.031253,0,8.745619)">
<stop offset="0" style="stop-color:rgb(63.137255%,53.333333%,49.803922%);stop-opacity:1;"/>
<stop offset="1" style="stop-color:rgb(73.72549%,66.666667%,64.313725%);stop-opacity:1;"/>
</linearGradient>
</defs>
<g id="surface1">
<path style=" stroke:none;fill-rule:nonzero;fill:url(#radial0);" d="M 9.097656 14.015625 L 10.417969 14.015625 L 10.417969 13.355469 L 9.097656 13.355469 Z M 9.097656 14.015625 "/>
<path style=" stroke:none;fill-rule:nonzero;fill:url(#radial1);" d="M 6.78125 14.015625 L 5.457031 14.015625 L 5.457031 14.679688 L 6.78125 14.679688 Z M 6.78125 14.015625 "/>
<path style=" stroke:none;fill-rule:nonzero;fill:url(#radial2);" d="M 6.78125 14.015625 L 5.457031 14.015625 L 5.457031 13.355469 L 6.78125 13.355469 Z M 6.78125 14.015625 "/>
<path style=" stroke:none;fill-rule:nonzero;fill:url(#radial3);" d="M 9.097656 14.015625 L 10.417969 14.015625 L 10.417969 14.679688 L 9.097656 14.679688 Z M 9.097656 14.015625 "/>
<path style=" stroke:none;fill-rule:nonzero;fill:url(#linear0);" d="M 6.78125 13.851562 L 9.097656 13.851562 L 9.097656 14.679688 L 6.78125 14.679688 Z M 6.78125 13.851562 "/>
<path style=" stroke:none;fill-rule:nonzero;fill:url(#linear1);" d="M 1.652344 7.734375 C 1.652344 11.214844 4.457031 14.015625 7.9375 14.015625 L 7.9375 7.734375 Z M 1.652344 7.734375 "/>
<path style=" stroke:none;fill-rule:nonzero;fill:url(#linear2);" d="M 7.9375 9.386719 C 7.386719 9.386719 6.945312 9.828125 6.945312 10.378906 C 6.945312 10.929688 7.386719 11.371094 7.9375 11.371094 Z M 7.9375 9.386719 "/>
<path style=" stroke:none;fill-rule:nonzero;fill:url(#linear3);" d="M 5.292969 11.039062 C 5.65625 11.039062 5.953125 11.335938 5.953125 11.703125 C 5.953125 12.066406 5.65625 12.363281 5.292969 12.363281 C 4.925781 12.363281 4.628906 12.066406 4.628906 11.703125 C 4.628906 11.335938 4.925781 11.039062 5.292969 11.039062 Z M 5.292969 11.039062 "/>
<path style=" stroke:none;fill-rule:nonzero;fill:url(#linear4);" d="M 5.359375 7.734375 C 5.488281 8.023438 5.777344 8.230469 6.117188 8.230469 C 6.460938 8.230469 6.75 8.023438 6.878906 7.734375 Z M 5.359375 7.734375 "/>
<path style=" stroke:none;fill-rule:nonzero;fill:url(#linear5);" d="M 3.554688 8.230469 C 4.058594 8.230469 4.464844 8.636719 4.464844 9.136719 C 4.464844 9.640625 4.058594 10.046875 3.554688 10.046875 C 3.054688 10.046875 2.644531 9.640625 2.644531 9.136719 C 2.644531 8.636719 3.054688 8.230469 3.554688 8.230469 Z M 3.554688 8.230469 "/>
<path style=" stroke:none;fill-rule:nonzero;fill:rgb(0%,0%,0%);fill-opacity:0.235294;" d="M 1.652344 7.734375 C 1.652344 11.214844 4.457031 14.015625 7.9375 14.015625 L 7.9375 13.851562 C 4.511719 13.851562 1.742188 11.136719 1.65625 7.734375 Z M 1.652344 7.734375 "/>
<path style=" stroke:none;fill-rule:nonzero;fill:rgb(100%,100%,100%);fill-opacity:0.392157;" d="M 1.652344 7.734375 C 1.652344 7.789062 1.65625 7.84375 1.65625 7.898438 L 7.9375 7.898438 L 7.9375 7.734375 Z M 1.652344 7.734375 "/>
<path style=" stroke:none;fill-rule:nonzero;fill:url(#linear6);" d="M 14.222656 7.734375 C 14.222656 4.25 11.417969 1.449219 7.9375 1.449219 L 7.9375 7.734375 Z M 14.222656 7.734375 "/>
<path style="fill:none;stroke-width:11.338583;stroke-linecap:round;stroke-linejoin:miter;stroke:rgb(12.941177%,12.941177%,12.941177%);stroke-opacity:1;stroke-miterlimit:4;" d="M 199.823448 935.343799 C 199.823448 1356.248509 539.003674 1694.956339 959.908384 1694.956339 L 959.908384 935.343799 Z M 199.823448 935.343799 " transform="matrix(0.00826902,0,0,0.00826902,0,0)"/>
<path style=" stroke:none;fill-rule:nonzero;fill:rgb(0%,0%,0%);fill-opacity:0.235294;" d="M 7.9375 7.566406 C 7.9375 7.621094 7.9375 7.675781 7.941406 7.734375 L 14.222656 7.734375 L 14.222656 7.566406 Z M 7.9375 7.566406 "/>
<path style=" stroke:none;fill-rule:nonzero;fill:url(#linear7);" d="M 14.222656 7.734375 C 14.222656 11.214844 11.417969 14.015625 7.9375 14.015625 L 7.9375 7.734375 Z M 14.222656 7.734375 "/>
<path style=" stroke:none;fill-rule:nonzero;fill:url(#linear8);" d="M 13.527344 7.734375 C 13.222656 10.683594 10.890625 13.015625 7.9375 13.320312 L 7.9375 14.015625 C 11.417969 14.015625 14.222656 11.214844 14.222656 7.734375 Z M 13.527344 7.734375 "/>
<path style=" stroke:none;fill-rule:nonzero;fill:url(#linear9);" d="M 13.152344 7.734375 C 12.730469 10.417969 10.621094 12.523438 7.9375 12.949219 L 7.9375 13.320312 C 10.890625 13.015625 13.222656 10.683594 13.527344 7.734375 Z M 13.152344 7.734375 "/>
<path style=" stroke:none;fill-rule:nonzero;fill:rgb(25.882354%,25.882354%,25.882354%);fill-opacity:1;" d="M 8.765625 8.230469 C 8.855469 8.230469 8.929688 8.339844 8.929688 8.476562 C 8.929688 8.613281 8.855469 8.726562 8.765625 8.726562 C 8.671875 8.726562 8.601562 8.613281 8.601562 8.476562 C 8.601562 8.339844 8.671875 8.230469 8.765625 8.230469 Z M 8.765625 8.230469 "/>
<path style=" stroke:none;fill-rule:nonzero;fill:rgb(25.882354%,25.882354%,25.882354%);fill-opacity:1;" d="M 8.601562 9.550781 C 8.691406 9.550781 8.765625 9.664062 8.765625 9.800781 C 8.765625 9.9375 8.691406 10.046875 8.601562 10.046875 C 8.507812 10.046875 8.433594 9.9375 8.433594 9.800781 C 8.433594 9.664062 8.507812 9.550781 8.601562 9.550781 Z M 8.601562 9.550781 "/>
<path style=" stroke:none;fill-rule:nonzero;fill:rgb(25.882354%,25.882354%,25.882354%);fill-opacity:1;" d="M 9.757812 8.558594 C 9.847656 8.558594 9.921875 8.671875 9.921875 8.808594 C 9.921875 8.945312 9.847656 9.054688 9.757812 9.054688 C 9.667969 9.054688 9.59375 8.945312 9.59375 8.808594 C 9.59375 8.671875 9.667969 8.558594 9.757812 8.558594 Z M 9.757812 8.558594 "/>
<path style=" stroke:none;fill-rule:nonzero;fill:rgb(25.882354%,25.882354%,25.882354%);fill-opacity:1;" d="M 9.59375 10.214844 C 9.683594 10.214844 9.757812 10.324219 9.757812 10.460938 C 9.757812 10.597656 9.683594 10.710938 9.59375 10.710938 C 9.5 10.710938 9.425781 10.597656 9.425781 10.460938 C 9.425781 10.324219 9.5 10.214844 9.59375 10.214844 Z M 9.59375 10.214844 "/>
<path style=" stroke:none;fill-rule:nonzero;fill:rgb(25.882354%,25.882354%,25.882354%);fill-opacity:1;" d="M 8.765625 11.371094 C 8.855469 11.371094 8.929688 11.480469 8.929688 11.617188 C 8.929688 11.757812 8.855469 11.867188 8.765625 11.867188 C 8.671875 11.867188 8.601562 11.757812 8.601562 11.617188 C 8.601562 11.480469 8.671875 11.371094 8.765625 11.371094 Z M 8.765625 11.371094 "/>
<path style=" stroke:none;fill-rule:nonzero;fill:rgb(25.882354%,25.882354%,25.882354%);fill-opacity:1;" d="M 11.082031 9.550781 C 11.171875 9.550781 11.246094 9.664062 11.246094 9.800781 C 11.246094 9.9375 11.171875 10.046875 11.082031 10.046875 C 10.988281 10.046875 10.914062 9.9375 10.914062 9.800781 C 10.914062 9.664062 10.988281 9.550781 11.082031 9.550781 Z M 11.082031 9.550781 "/>
<path style=" stroke:none;fill-rule:nonzero;fill:rgb(25.882354%,25.882354%,25.882354%);fill-opacity:1;" d="M 10.914062 8.394531 C 11.007812 8.394531 11.082031 8.503906 11.082031 8.640625 C 11.082031 8.777344 11.007812 8.890625 10.914062 8.890625 C 10.824219 8.890625 10.75 8.777344 10.75 8.640625 C 10.75 8.503906 10.824219 8.394531 10.914062 8.394531 Z M 10.914062 8.394531 "/>
<path style=" stroke:none;fill-rule:nonzero;fill:rgb(100%,100%,100%);fill-opacity:0.392157;" d="M 7.9375 7.734375 C 7.9375 7.789062 7.9375 7.84375 7.941406 7.898438 L 14.222656 7.898438 L 14.222656 7.734375 Z M 7.9375 7.734375 "/>
<path style=" stroke:none;fill-rule:nonzero;fill:rgb(0%,0%,0%);fill-opacity:0.235294;" d="M 14.222656 7.734375 C 14.222656 11.214844 11.417969 14.015625 7.9375 14.015625 L 7.9375 13.851562 C 11.363281 13.851562 14.132812 11.136719 14.21875 7.734375 Z M 14.222656 7.734375 "/>
<path style="fill:none;stroke-width:3;stroke-linecap:round;stroke-linejoin:miter;stroke:rgb(12.941177%,12.941177%,12.941177%);stroke-opacity:1;stroke-miterlimit:4;" d="M 455.081542 32.476367 C 455.081542 143.840732 365.340112 233.457174 253.975747 233.457174 L 253.975747 32.476367 Z M 455.081542 32.476367 " transform="matrix(0.031253,0,0,0.031253,0,6.719392)"/>
<path style=" stroke:none;fill-rule:nonzero;fill:url(#linear10);" d="M 1.652344 7.734375 C 1.652344 4.25 4.457031 1.449219 7.9375 1.449219 L 7.9375 7.734375 Z M 1.652344 7.734375 "/>
<path style=" stroke:none;fill-rule:nonzero;fill:rgb(100%,100%,100%);fill-opacity:0.392157;" d="M 1.652344 7.734375 C 1.652344 4.25 4.457031 1.449219 7.9375 1.449219 L 7.9375 1.613281 C 4.511719 1.613281 1.742188 4.328125 1.65625 7.734375 Z M 1.652344 7.734375 "/>
<path style=" stroke:none;fill-rule:nonzero;fill:rgb(100%,100%,100%);fill-opacity:1;" d="M 14.222656 7.734375 C 14.222656 4.25 11.417969 1.449219 7.9375 1.449219 L 7.9375 1.613281 C 11.363281 1.613281 14.132812 4.328125 14.21875 7.734375 Z M 14.222656 7.734375 "/>
<path style=" stroke:none;fill-rule:nonzero;fill:rgb(0%,0%,0%);fill-opacity:0.235294;" d="M 1.652344 7.566406 C 1.652344 7.621094 1.65625 7.675781 1.65625 7.734375 L 7.9375 7.734375 L 7.9375 7.566406 Z M 1.652344 7.566406 "/>
<path style="fill:none;stroke-width:3;stroke-linecap:round;stroke-linejoin:miter;stroke:rgb(12.941177%,12.941177%,12.941177%);stroke-opacity:1;stroke-miterlimit:4;" d="M 52.869951 32.476367 C 52.869951 -79.012986 142.611381 -168.629428 253.975747 -168.629428 L 253.975747 32.476367 Z M 52.869951 32.476367 " transform="matrix(0.031253,0,0,0.031253,0,6.719392)"/>
<path style="fill:none;stroke-width:3;stroke-linecap:round;stroke-linejoin:miter;stroke:rgb(12.941177%,12.941177%,12.941177%);stroke-opacity:1;stroke-miterlimit:4;" d="M 455.081542 32.476367 C 455.081542 -79.012986 365.340112 -168.629428 253.975747 -168.629428 L 253.975747 32.476367 Z M 455.081542 32.476367 " transform="matrix(0.031253,0,0,0.031253,0,6.719392)"/>
</g>
</svg>

<svg xmlns="http://www.w3.org/2000/svg" width="16pt" height="16pt" viewBox="0 0 16 16"><defs><radialGradient id="a" gradientUnits="userSpaceOnUse" cx="450.909" cy="189.579" fx="450.909" fy="189.579" r="21.167" gradientTransform="matrix(0 -.03907 -.07032 0 22.262 31.798)"><stop offset="0" stop-opacity=".314"/><stop offset=".222" stop-opacity=".275"/><stop offset="1" stop-opacity="0"/></radialGradient><radialGradient id="b" gradientUnits="userSpaceOnUse" cx="450.909" cy="189.579" fx="450.909" fy="189.579" r="21.167" gradientTransform="matrix(0 .03907 .07032 0 -6.385 -3.764)"><stop offset="0" stop-opacity=".314"/><stop offset=".222" stop-opacity=".275"/><stop offset="1" stop-opacity="0"/></radialGradient><radialGradient id="c" gradientUnits="userSpaceOnUse" cx="450.909" cy="189.579" fx="450.909" fy="189.579" r="21.167" gradientTransform="matrix(0 -.03907 .07032 0 -6.385 31.798)"><stop offset="0" stop-opacity=".314"/><stop offset=".222" stop-opacity=".275"/><stop offset="1" stop-opacity="0"/></radialGradient><radialGradient id="d" gradientUnits="userSpaceOnUse" cx="450.909" cy="189.579" fx="450.909" fy="189.579" r="21.167" gradientTransform="matrix(0 .03907 -.07032 0 22.262 -3.764)"><stop offset="0" stop-opacity=".314"/><stop offset=".222" stop-opacity=".275"/><stop offset="1" stop-opacity="0"/></radialGradient><linearGradient id="e" gradientUnits="userSpaceOnUse" x1="255.323" y1="233.5" x2="255.323" y2="254.667" gradientTransform="matrix(.00668 0 0 .03125 6.233 6.72)"><stop offset="0" stop-opacity=".275"/><stop offset="1" stop-opacity="0"/></linearGradient><linearGradient id="f" gradientUnits="userSpaceOnUse" x1="254" y1="32.417" x2="254" y2="233.5" gradientTransform="matrix(.03125 0 0 .03125 0 6.72)"><stop offset="0" stop-color="#ffe0b2"/><stop offset="1" stop-color="#ffcc80"/></linearGradient><linearGradient id="g" gradientUnits="userSpaceOnUse" x1="840" y1="1255.118" x2="960" y2="1255.117" gradientTransform="rotate(.882) scale(.00827)"><stop offset="0" stop-color="#ffb74d"/><stop offset="1" stop-color="#ffcc80"/></linearGradient><linearGradient id="h" gradientUnits="userSpaceOnUse" x1="128.323" y1="64.167" x2="128.323" y2="117.083" gradientTransform="matrix(.025 0 0 .025 2.25 9.436)"><stop offset="0" stop-color="#ffb74d"/><stop offset="1" stop-color="#ffcc80"/></linearGradient><linearGradient id="i" gradientUnits="userSpaceOnUse" x1="116.417" y1="101.208" x2="116.417" y2="117.083" gradientTransform="matrix(.03125 0 0 .03125 2.315 4.57)"><stop offset="0" stop-color="#ffb74d"/><stop offset="1" stop-color="#ffcc80"/></linearGradient><linearGradient id="j" gradientUnits="userSpaceOnUse" x1="133.735" y1="68.977" x2="133.735" y2="117.083" gradientTransform="matrix(.03438 0 0 .03438 -.628 6.023)"><stop offset="0" stop-color="#ffb74d"/><stop offset="1" stop-color="#ffcc80"/></linearGradient><linearGradient id="k" gradientUnits="userSpaceOnUse" x1="254" y1="32.417" x2="254" y2="233.5" gradientTransform="matrix(-.03125 0 0 -.03125 15.877 8.746)"><stop offset="0" stop-color="#e0e0e0"/><stop offset="1" stop-color="#f5f5f5"/></linearGradient><linearGradient id="l" gradientUnits="userSpaceOnUse" x1="254" y1="32.417" x2="254" y2="233.5" gradientTransform="matrix(-.03125 0 0 .03125 15.877 6.72)"><stop offset="0" stop-color="#ef9a9a"/><stop offset="1" stop-color="#ef5350"/></linearGradient><linearGradient id="m" gradientUnits="userSpaceOnUse" x1="254" y1="32.417" x2="254" y2="233.5" gradientTransform="matrix(-.03125 0 0 .03125 15.877 6.72)"><stop offset="0" stop-color="#a5d6a7"/><stop offset="1" stop-color="#66bb6a"/></linearGradient><linearGradient id="n" gradientUnits="userSpaceOnUse" x1="254" y1="32.417" x2="254" y2="233.5" gradientTransform="matrix(-.03125 0 0 .03125 15.215 6.058)"><stop offset="0" stop-color="#f5f5f5"/><stop offset="1" stop-color="#e0e0e0"/></linearGradient><linearGradient id="o" gradientUnits="userSpaceOnUse" x1="254" y1="32.417" x2="254" y2="233.5" gradientTransform="matrix(.03125 0 0 -.03125 0 8.746)"><stop offset="0" stop-color="#a1887f"/><stop offset="1" stop-color="#bcaaa4"/></linearGradient></defs><path d="M9.098 14.016h1.32v-.66h-1.32zm0 0" fill="url(#a)"/><path d="M6.781 14.016H5.457v.664h1.324zm0 0" fill="url(#b)"/><path d="M6.781 14.016H5.457v-.66h1.324zm0 0" fill="url(#c)"/><path d="M9.098 14.016h1.32v.664h-1.32zm0 0" fill="url(#d)"/><path d="M6.781 13.852h2.317v.828H6.78zm0 0" fill="url(#e)"/><path d="M1.652 7.734a6.27 6.27 0 0 0 6.285 6.282V7.734zm0 0" fill="url(#f)"/><path d="M7.938 9.387a.989.989 0 0 0-.993.992c0 .55.442.992.992.992zm0 0" fill="url(#g)"/><path d="M5.293 11.04a.663.663 0 1 1-.005 1.324.663.663 0 0 1 .005-1.325zm0 0" fill="url(#h)"/><path d="M5.36 7.734c.128.29.417.496.757.496a.833.833 0 0 0 .762-.496zm0 0" fill="url(#i)"/><path d="M3.555 8.23a.908.908 0 1 1 0 1.817c-.5 0-.91-.406-.91-.91 0-.5.41-.907.91-.907zm0 0" fill="url(#j)"/><path d="M1.652 7.734a6.27 6.27 0 0 0 6.285 6.282v-.164a6.269 6.269 0 0 1-6.28-6.118zm0 0" fill-opacity=".235"/><path d="M1.652 7.734c0 .055.004.11.004.164h6.282v-.164zm0 0" fill="#fff" fill-opacity=".392"/><path d="M14.223 7.734A6.27 6.27 0 0 0 7.937 1.45v6.285zm0 0" fill="url(#k)"/><path d="M1.652 7.734a6.27 6.27 0 0 0 6.286 6.282V7.734zm0 0" fill="none" stroke-width=".09377353" stroke-linecap="round" stroke="#212121"/><path d="M7.938 7.566c0 .055 0 .11.003.168h6.282v-.168zm0 0" fill-opacity=".235"/><path d="M14.223 7.734a6.27 6.27 0 0 1-6.286 6.282V7.734zm0 0" fill="url(#l)"/><path d="M13.527 7.734a6.264 6.264 0 0 1-5.59 5.586v.696a6.27 6.27 0 0 0 6.286-6.282zm0 0" fill="url(#m)"/><path d="M13.152 7.734a6.272 6.272 0 0 1-5.214 5.215v.371a6.264 6.264 0 0 0 5.59-5.586zm0 0" fill="url(#n)"/><path d="M8.766 8.23c.09 0 .164.11.164.247 0 .136-.075.25-.164.25-.094 0-.164-.114-.164-.25 0-.137.07-.247.164-.247zm0 0M8.602 9.55c.09 0 .164.114.164.25 0 .137-.075.247-.164.247-.094 0-.168-.11-.168-.246 0-.137.074-.25.168-.25zm0 0M9.758 8.559c.09 0 .164.113.164.25 0 .136-.074.246-.164.246-.09 0-.164-.11-.164-.246 0-.137.074-.25.164-.25zm0 0M9.594 10.215c.09 0 .164.11.164.246 0 .137-.074.25-.164.25-.094 0-.168-.113-.168-.25s.074-.246.168-.246zm0 0M8.766 11.371c.09 0 .164.11.164.246 0 .14-.075.25-.164.25-.094 0-.164-.11-.164-.25 0-.137.07-.246.164-.246zm0 0M11.082 9.55c.09 0 .164.114.164.25 0 .137-.074.247-.164.247-.094 0-.168-.11-.168-.246 0-.137.074-.25.168-.25zm0 0M10.914 8.395c.094 0 .168.109.168.246 0 .136-.074.25-.168.25-.09 0-.164-.114-.164-.25 0-.137.074-.246.164-.246zm0 0" fill="#424242"/><path d="M7.938 7.734c0 .055 0 .11.003.164h6.282v-.164zm0 0" fill="#fff" fill-opacity=".392"/><path d="M14.223 7.734a6.27 6.27 0 0 1-6.286 6.282v-.164a6.269 6.269 0 0 0 6.282-6.118zm0 0" fill-opacity=".235"/><path d="M14.223 7.734a6.27 6.27 0 0 1-6.285 6.282V7.734zm0 0" fill="none" stroke-width=".09375" stroke-linecap="round" stroke="#212121"/><path d="M1.652 7.734A6.27 6.27 0 0 1 7.937 1.45v6.285zm0 0" fill="url(#o)"/><path d="M1.652 7.734A6.27 6.27 0 0 1 7.937 1.45v.164a6.27 6.27 0 0 0-6.28 6.121zm0 0" fill="#fff" fill-opacity=".392"/><path d="M14.223 7.734A6.27 6.27 0 0 0 7.937 1.45v.164a6.27 6.27 0 0 1 6.282 6.121zm0 0" fill="#fff"/><path d="M1.652 7.566c0 .055.004.11.004.168h6.282v-.168zm0 0" fill-opacity=".235"/><path d="M1.652 7.734A6.27 6.27 0 0 1 7.938 1.45v6.285zm0 0M14.223 7.734A6.27 6.27 0 0 0 7.938 1.45v6.285zm0 0" fill="none" stroke-width=".09375" stroke-linecap="round" stroke="#212121"/></svg>
